X: 260
T: Ben Sana Mecbûr Olmuşum
C: Dellalzâde İsmail Efendi
O: Turkey
F: http://compmusic.upf.edu/node/140
N: tahir--sarki--aksak--ben_sana--dellalzade_haci_ismail_efendi
N: makam= tahir
N: form= sarki
N: usul= aksak = 9/8
M: 9/8
L: 1/16
K: C _2/4B ^3/4f  
Q: 1/4=144
%%MIDI tuningsystem comma53
z4 f2g2 a4 a4 c'2 | c'3bb3aa2 b2a2 g2f^3/4e  | \
w:  Ben  sa na  mec  |  bûr  *  ol *  mu *  şum   | 
f4 f2f2 fgf^3/4e f6 | 
w:  *  gel  yav ru *  *  *  ca  | 
e2 f2g2 a2a2 g2^1/4f2 e2d2  | z2a2 g2=f2 e3d agfe d^c | 
w:  ğım    |  gel  *  yav ru *  ca  | 
d6 =fedc Bcd3cBc  | d4 B2c2 d4 ded2 e2 | \
w:  ğım   SAZ  |  *  Gir  sü rü ye   | 
d3cd2 e2d2 cBc4BA  | 
w:  kurt  *  kap *  ma *  *  sın   | 
A4 g3g gfge d4 a2 | a2 g2=f2 e2d2 c2B2 A2G2  | \
w:  *  gel  ku zu *  *  *  ca  |  ğım    | 
z2c2 B2d2 c2B2 {d}c2B2 BA | 
w:  gel  *  ku zu *  *  ca  | 
A6 =fedc Bcd3cBc  | d4 B2c2 d4 ded2 e2 | \
w:  ğım   SAZ  |  *  Gir  sü rü ye   | 
d3cd2 e2d2 cBc4BA  | 
w:  kurt  *  kap *  ma *  *  sın   | 
A4 g3g gfge d4 a2 | a2 g2=f2 e2d2 c2B2 A2G2  | \
w:  *  gel  ku zu *  *  *  ca  |  ğım    | 
z2c2 B2d2 c2B2 {d}c2B2 BA | 
w:  gel  *  ku zu *  *  ca  | 
A6 c'2bc' d'bc'4bd'  | c'4 c'2c'2 c'4 c'4 c'b | \
w:  ğım   SAZ  |  *  Sa na  ya tak   | 
b4b2 baa2 b2a2 g2f^3/4e  | 
w:  iş te  *  *  sî *  nem   | 
f4 f2f2 fgf^3/4e f6 | e2 f2g2 a2a2 g2^1/4f2 e2d2  | \
w:  *  iş te  ku *  *  *  ca  |  ğım    | 
z2a2 g2=f2 e3d agfe d^c | 
w:  iş *  te  ku *  ca  | 
d6 c'2bc' d'bc'4bd'  | c'4 c'2c'2 c'4 c'4 c'b | \
w:  ğım   SAZ  |  *  Sa na  ya tak   | 
b4b2 baa2 b2a2 g2f^3/4e  | 
w:  iş te  *  *  sî *  nem   | 
f4 f2f2 fgf^3/4e f6 | e2 f2g2 a2a2 g2^1/4f2 e2d2  | \
w:  *  iş te  ku *  *  *  ca  |  ğım    | 
z2a2 g2=f2 e3d agfe d^c | 
w:  iş *  te  ku *  ca  | 
d6 =fedc Bcd3cBc  | d4 B2c2 d4 ded2 e2 | \
w:  ğım   SAZ  |  *  Gir  sü rü ye   | 
d3cd2 e2d2 cBc4BA  | 
w:  kurt  *  kap *  ma *  *  sın   | 
A4 g3g gfge d4 a2 | a2 g2=f2 e2d2 c2B2 A2G2  | \
w:  *  gel  ku zu *  *  *  ca  |  ğım    | 
z2c2 B2d2 c2B2 {d}c2B2 BA | 
w:  gel  *  ku zu *  *  ca  | 
A6 =fedc Bcd3cBc  | d4 B2c2 d4 ded2 e2 | \
w:  ğım   SAZ  |  *  Gir  sü rü ye   | 
d3cd2 e2d2 cBc4BA  | 
w:  kurt  *  kap *  ma *  *  sın   | 
A4 g3g gfge d4 a2 | a2 g2=f2 e2d2 c2B2 A2G2  | \
w:  *  gel  ku zu *  *  *  ca  |  ğım    | 
z2c2 B2d2 c2B2 {d}c2B2 BA | 
w:  gel  *  ku zu *  *  ca  | 
A6 |
w:  ğım    | 


